X: 165
T: Paperbird
M:C
L:1/8
Q:224
S:Calico : Songdogs
K:BMinor
| Bcde ~f2 ef | Bcdf ~a2 gf | Bcde ~f2 gf |1 efcd B3 F :|2 efcd B3 c||
|dBde  ~f2 ef | dBfg ~f ef | dBde ~f ab|1 fede ~f3 d :|2 fede ~f3 a||
| bbab fefa | fabf edea | bbab fede|1 fgfe ~f3 a :|2 fgfe  f~f3 ||
